img/time/evening.svg

<?xml version="1.0" encoding="iso-8859-1"?>
<!-- Generator: Adobe Illustrator 19.0.0, SVG Export Plug-In . SVG Version: 6.00 Build 0)  -->
<svg version="1.1" id="Capa_1" xmlns="http://www.w3.org/2000/svg" xmlns:xlink="http://www.w3.org/1999/xlink" x="0px" y="0px"
	 viewBox="0 0 512 512" style="enable-background:new 0 0 512 512;" xml:space="preserve">
<g>
	<g>
		<rect y="290.133" width="512" height="17.067"/>
	</g>
</g>
<g>
	<g>
		<rect x="324.267" y="341.333" width="102.4" height="17.067"/>
	</g>
</g>
<g>
	<g>
		<rect x="162.133" y="341.333" width="145.067" height="17.067"/>
	</g>
</g>
<g>
	<g>
		<rect x="85.333" y="341.333" width="59.733" height="17.067"/>
	</g>
</g>
<g>
	<g>
		<rect x="230.4" y="392.533" width="162.133" height="17.067"/>
	</g>
</g>
<g>
	<g>
		<rect x="119.467" y="392.533" width="93.867" height="17.067"/>
	</g>
</g>
<g>
	<g>
		<rect x="196.267" y="443.733" width="170.667" height="17.067"/>
	</g>
</g>
<g>
	<g>
		<rect x="145.067" y="443.733" width="34.133" height="17.067"/>
	</g>
</g>
<g>
	<g>
		<rect x="187.733" y="494.933" width="136.533" height="17.067"/>
	</g>
</g>
<g>
	<g>
		<path d="M420.318,159.104C380.911,68.506,275.14,26.846,184.516,66.261C93.909,105.677,52.258,211.456,91.674,302.063l15.65-6.801
			c-17.28-39.714-18.048-83.78-2.185-124.075c15.863-40.294,46.473-72.004,86.187-89.276c81.971-35.661,177.681,2.022,213.35,84.002
			c17.886,41.097,17.886,88.243,0,129.34l15.65,6.818C440.09,256.64,440.09,204.535,420.318,159.104z"/>
	</g>
</g>
<g>
	<g>
		<path d="M34.133,13.559C24.866,4.804,12.8,0,0,0v17.067c8.713,0,16.905,3.388,23.066,9.532l5.035,5.035
			c1.664,1.664,3.849,2.5,6.033,2.5c2.185,0,4.369-0.836,6.033-2.5l5.026-5.026c6.17-6.153,14.362-9.54,23.074-9.54V0
			C55.467,0,43.409,4.804,34.133,13.559z"/>
	</g>
</g>
<g>
	<g>
		<path d="M59.733,73.293C50.466,64.538,38.4,59.733,25.6,59.733V76.8c8.713,0,16.905,3.388,23.066,9.532l5.035,5.035
			c1.664,1.664,3.849,2.5,6.033,2.5s4.369-0.836,6.033-2.5l5.026-5.026c6.17-6.153,14.362-9.54,23.074-9.54V59.733
			C81.067,59.733,69.009,64.538,59.733,73.293z"/>
	</g>
</g>
<g>
	<g>
		<path d="M119.467,30.626c-9.267-8.755-21.333-13.56-34.133-13.56v17.067c8.713,0,16.905,3.388,23.066,9.532l5.035,5.035
			c1.664,1.664,3.849,2.5,6.033,2.5s4.369-0.836,6.033-2.5l5.026-5.026c6.17-6.153,14.362-9.54,23.074-9.54V17.067
			C140.8,17.067,128.742,21.871,119.467,30.626z"/>
	</g>
</g>
<g>
</g>
<g>
</g>
<g>
</g>
<g>
</g>
<g>
</g>
<g>
</g>
<g>
</g>
<g>
</g>
<g>
</g>
<g>
</g>
<g>
</g>
<g>
</g>
<g>
</g>
<g>
</g>
<g>
</g>
</svg>

<svg width="512" height="512" viewBox="0 0 512 512" fill="none" xmlns="http://www.w3.org/2000/svg">
<path d="M512 290.133H0V307.2H512V290.133Z" fill="white"/>
<path d="M426.667 341.333H324.267V358.4H426.667V341.333Z" fill="white"/>
<path d="M307.2 341.333H162.133V358.4H307.2V341.333Z" fill="white"/>
<path d="M145.066 341.333H85.333V358.4H145.066V341.333Z" fill="white"/>
<path d="M392.533 392.533H230.4V409.6H392.533V392.533Z" fill="white"/>
<path d="M213.334 392.533H119.467V409.6H213.334V392.533Z" fill="white"/>
<path d="M366.934 443.733H196.267V460.8H366.934V443.733Z" fill="white"/>
<path d="M179.2 443.733H145.067V460.8H179.2V443.733Z" fill="white"/>
<path d="M324.266 494.933H187.733V512H324.266V494.933Z" fill="white"/>
<path d="M420.318 159.104C380.911 68.506 275.14 26.846 184.516 66.261C93.909 105.677 52.258 211.456 91.674 302.063L107.324 295.262C90.044 255.548 89.276 211.482 105.139 171.187C121.002 130.893 151.612 99.183 191.326 81.911C273.297 46.25 369.007 83.933 404.676 165.913C422.562 207.01 422.562 254.156 404.676 295.253L420.326 302.071C440.09 256.64 440.09 204.535 420.318 159.104Z" fill="white"/>
<path d="M34.133 13.559C24.866 4.804 12.8 0 0 0V17.067C8.713 17.067 16.905 20.455 23.066 26.599L28.101 31.634C29.765 33.298 31.95 34.134 34.134 34.134C36.319 34.134 38.503 33.298 40.167 31.634L45.193 26.608C51.363 20.455 59.555 17.068 68.267 17.068V0C55.467 0 43.409 4.804 34.133 13.559Z" fill="white"/>
<path d="M59.733 73.293C50.466 64.538 38.4 59.733 25.6 59.733V76.8C34.313 76.8 42.505 80.188 48.666 86.332L53.701 91.367C55.365 93.031 57.55 93.867 59.734 93.867C61.918 93.867 64.103 93.031 65.767 91.367L70.793 86.341C76.963 80.188 85.155 76.801 93.867 76.801V59.733C81.067 59.733 69.009 64.538 59.733 73.293Z" fill="white"/>
<path d="M119.467 30.626C110.2 21.871 98.134 17.066 85.334 17.066V34.133C94.047 34.133 102.239 37.521 108.4 43.665L113.435 48.7C115.099 50.364 117.284 51.2 119.468 51.2C121.652 51.2 123.837 50.364 125.501 48.7L130.527 43.674C136.697 37.521 144.889 34.134 153.601 34.134V17.067C140.8 17.067 128.742 21.871 119.467 30.626Z" fill="white"/>
</svg>
